X:556
T: TUK TUK  TUK MIEN HAEHNEKEN
N: E1847
O: Europa, Mitteleuropa, Deutschland, Hannover
R: Kinder - Lied, Tier - Lied
M: 2/4
L: 1/8
K: F
 | FFFA | ccc
c | defd | c2z
c | cBBB | BAA
A | GABG | F2z2

